X:1
T:Where Am I To Go?
M:4/4
L:1/4
K:D
 A| A3/2 B/2 A F| E D B,/2 D3/2| C3/2 C/2 B, A,| F2| F/2 E3/2| D2 E2|\
 F2 d2| e2 A2| d3 d| d3/2 e/2 d B| A F| E/2 D3/2| E3/2 E/2 F D| B,2 z A,|\
 D3/2 E/2 F G| A A B G| F3/2 G/2 F E| D2 z||
